X: 321
T: Fiddler's Cramp
C: Bert Murray
R: strathspey
B: Bert Murray's "Bon Accord Collection" 1999 p.32
%
Z: 2011 John Chambers <jc:trillian.mit.edu>
M: C
L: 1/8
K: F
(uA>B) |\
c>fd>f e>gc>e | (3fga (f>c) (3ABc (A>F) |\
E>FG>A B>dc>=B | c>=Bc>d c>_BA>B |
c>fd>f e>gc>e | (3fga (f>c) (3ABc (A>F) |\
E>FG>A B>dc>B | (3AGF (3GFE F2 ||
(uG>A) |\
(3BAG (3AGF (3EGB (3dcB | (3Acf (3Acf (3agf (3edc |\
(3BAG (3AGF (3EGB (3dcB | (3Acf (3Acf (3agf (3edc |
(3d^cd (3Bdf (3bag (3fed | (3c=Bc (3Acf (3agf(3edc |\
(3dfe (3dcB (3AcB (3AGF | (3EGB (d>c) F2 |]

%%sep 2 1 500

